public/images/icons/TailwindCSS.svg

<svg width="198" height="126" viewBox="0 0 198 126" fill="none" xmlns="http://www.w3.org/2000/svg">
<path d="M146.343 27.216C160.309 43.488 181.17 44.064 194.641 26.568C196.102 24.672 196.527 24.888 195.914 27.216C184.918 69.804 133.014 74.124 106.425 45.468C102.005 40.716 97.3736 35.1 91.7871 31.896C76.9371 23.328 63.8197 27.396 52.6114 39.996C51.1264 41.676 50.6904 41.424 51.3032 39.24C56.7482 19.56 68.805 8.00399 87.4736 4.57199C112.082 0.0719898 130.751 8.99999 146.343 27.216Z" fill="#38BDF8"/>
<path d="M55.1924 102.996C40.6253 85.572 19.9767 80.172 3.74778 99.684C1.81492 102.012 1.29635 101.724 2.19207 98.82C9.38135 75.372 25.3156 63.576 49.9949 63.432C70.891 63.324 85.3874 73.332 98.5049 88.308C112.506 104.292 132.554 102.672 146.096 86.076C147.345 84.516 147.71 84.708 147.192 86.652C141.287 108.072 126.472 121.644 104.127 123.228C83.9496 124.668 67.6381 117.924 55.1924 102.996Z" fill="#38BDF8"/>
</svg>

<svg width="198" height="126" fill="none" xmlns="http://www.w3.org/2000/svg"><path d="M146.343 27.216c13.966 16.272 34.827 16.848 48.298-.648 1.461-1.896 1.886-1.68 1.273.648-10.996 42.588-62.9 46.908-89.489 18.252-4.42-4.752-9.051-10.368-14.638-13.572-14.85-8.568-27.967-4.5-39.176 8.1-1.485 1.68-1.92 1.428-1.308-.756 5.445-19.68 17.502-31.236 36.17-34.668 24.609-4.5 43.278 4.428 58.87 22.644ZM55.192 102.996C40.625 85.572 19.977 80.172 3.748 99.684c-1.933 2.328-2.452 2.04-1.556-.864 7.19-23.448 23.124-35.244 47.803-35.388 20.896-.108 35.392 9.9 48.51 24.876 14.001 15.984 34.049 14.364 47.591-2.232 1.249-1.56 1.614-1.368 1.096.576-5.905 21.42-20.72 34.992-43.065 36.576-20.177 1.44-36.489-5.304-48.935-20.232Z" fill="#38BDF8"/></svg>
